epam-assets/icon-sources/18/editor-format_strikethrough.svg

<svg xmlns="http://www.w3.org/2000/svg" width="18" height="18" fill="none" viewBox="0 0 18 18">
  <path fill="#6C6F80" fill-rule="evenodd" d="M7.5 15h3v-2.25h-3V15ZM3.75 3.75V6H7.5v2.25h3V6h3.75V3.75H3.75Zm-1.5 7.5h13.5v-1.5H2.25v1.5Z" clip-rule="evenodd"/>
</svg>

<svg width="18" height="18" viewBox="0 0 18 18" fill="none" xmlns="http://www.w3.org/2000/svg">
<g id="18/editor-format_strikethrough">
<path id="icon" fill-rule="evenodd" clip-rule="evenodd" d="M7.5 15H10.5V12.75H7.5V15ZM3.75 3.75V6H7.5V8.25H10.5V6H14.25V3.75H3.75ZM2.25 11.25H15.75V9.75H2.25V11.25Z" fill="#6C6F80"/>
</g>
</svg>
